static/icons/twitter.svg

<?xml version="1.0" encoding="UTF-8" standalone="no"?>
<svg width="20px" height="20px" viewBox="0 0 20 20" version="1.1" xmlns="http://www.w3.org/2000/svg" xmlns:xlink="http://www.w3.org/1999/xlink">
    <!-- Generator: sketchtool 40.3 (33839) - http://www.bohemiancoding.com/sketch -->
    <title>F03169ED-ECB7-472D-930C-123FFBDD8BF0</title>
    <desc>Created with sketchtool.</desc>
    <defs></defs>
    <g id="Symbols" stroke="none" stroke-width="1" fill="none" fill-rule="evenodd">
        <g id="Header---Mini" transform="translate(-1720.000000, -5.000000)">
            <g id="Twitter" transform="translate(1720.000000, 5.000000)">
                <path d="M10,20 C15.523,20 20,15.523 20,10 C20,4.477 15.523,0 10,0 C4.477,0 0,4.477 0,10 C0,15.523 4.477,20 10,20" id="Fill-1" fill="#FFFF00"></path>
                <path d="M16.175,6.1641 C15.688,6.3701 15.201,6.5011 14.714,6.5571 C15.257,6.2301 15.627,5.7661 15.824,5.1661 C15.327,5.4661 14.793,5.6721 14.222,5.7851 C13.716,5.2511 13.098,4.9841 12.367,4.9841 C11.665,4.9841 11.065,5.2321 10.569,5.7281 C10.072,6.2251 9.824,6.8241 9.824,7.5271 C9.824,7.7141 9.843,7.9061 9.881,8.1031 C8.841,8.0471 7.871,7.7851 6.972,7.3161 C6.073,6.8481 5.305,6.2251 4.668,5.4471 C4.434,5.8411 4.317,6.2621 4.317,6.7121 C4.317,7.1621 4.42,7.5691 4.626,7.9341 C4.832,8.3001 5.108,8.5991 5.455,8.8331 C5.052,8.8151 4.673,8.7071 4.317,8.5101 L4.317,8.5381 C4.307,9.1571 4.499,9.6951 4.893,10.1541 C5.286,10.6131 5.773,10.9041 6.354,11.0251 C6.139,11.0811 5.919,11.1101 5.694,11.1101 C5.544,11.1101 5.385,11.0961 5.216,11.0671 C5.385,11.5731 5.684,11.9901 6.115,12.3181 C6.546,12.6461 7.038,12.8141 7.59,12.8241 C6.672,13.5451 5.623,13.9061 4.443,13.9061 C4.218,13.9061 4.012,13.8961 3.825,13.8771 C5.005,14.6361 6.302,15.0151 7.717,15.0151 C8.616,15.0251 9.459,14.8841 10.246,14.5941 C11.033,14.3041 11.707,13.9241 12.269,13.4561 C12.831,12.9881 13.313,12.4401 13.716,11.8121 C14.119,11.1851 14.419,10.5341 14.615,9.8591 C14.812,9.1851 14.911,8.5061 14.911,7.8221 C14.911,7.6811 14.906,7.5741 14.896,7.4991 C15.393,7.1431 15.814,6.7071 16.161,6.1921 L16.175,6.1641 Z" id="Fill-3" fill="#221F20"></path>
            </g>
        </g>
    </g>
</svg>

<svg xmlns="http://www.w3.org/2000/svg" width="28" height="28" viewBox="0 0 28 28">
    <defs>
        <filter id="a" width="170%" height="170%" x="-35%" y="-25%" filterUnits="objectBoundingBox">
            <feOffset dy="2" in="SourceAlpha" result="shadowOffsetOuter1"/>
            <feGaussianBlur in="shadowOffsetOuter1" result="shadowBlurOuter1" stdDeviation="2"/>
            <feColorMatrix in="shadowBlurOuter1" result="shadowMatrixOuter1" values="0 0 0 0 0 0 0 0 0 0 0 0 0 0 0 0 0 0 0.5 0"/>
            <feMerge>
                <feMergeNode in="shadowMatrixOuter1"/>
                <feMergeNode in="SourceGraphic"/>
            </feMerge>
        </filter>
    </defs>
    <g fill="none" fill-rule="evenodd" filter="url(#a)" transform="translate(4 2)">
        <path fill="#BDEBE5" d="M10 20c5.523 0 10-4.477 10-10S15.523 0 10 0 0 4.477 0 10s4.477 10 10 10"/>
        <path fill="#231F20" d="M16.175 6.164a5.293 5.293 0 0 1-1.461.393 2.478 2.478 0 0 0 1.11-1.39c-.497.3-1.031.505-1.602.618a2.457 2.457 0 0 0-1.855-.8 2.45 2.45 0 0 0-1.798.743 2.45 2.45 0 0 0-.745 1.8c0 .186.019.378.057.575a7.033 7.033 0 0 1-2.909-.787 7.306 7.306 0 0 1-2.304-1.869 2.434 2.434 0 0 0-.351 1.265c0 .45.103.857.309 1.222.206.366.482.665.829.9a2.556 2.556 0 0 1-1.138-.324v.028a2.34 2.34 0 0 0 .576 1.616c.393.46.88.75 1.461.871a2.609 2.609 0 0 1-1.138.042c.169.506.468.923.899 1.251.431.328.923.496 1.475.506a4.957 4.957 0 0 1-3.147 1.082c-.225 0-.431-.01-.618-.029a7.048 7.048 0 0 0 3.892 1.138 7.027 7.027 0 0 0 2.529-.42c.787-.29 1.461-.67 2.023-1.139a7.146 7.146 0 0 0 1.447-1.644 7.441 7.441 0 0 0 .899-1.953 7.228 7.228 0 0 0 .296-2.037c0-.14-.005-.248-.015-.323a5.091 5.091 0 0 0 1.265-1.307l.014-.028z"/>
    </g>
</svg>
